X:1
T:Gavotte du Léon
C:Léon, Bretagne, fichier abc : Bernard Loffet
L:1/8
Q:204
M:3/4
K:G
 [GG,,]G [BG,]A [GG,]F | [G2E,,2] [GE,]A [B3/2C,,3/2]c/ | \
M:2/4
 [d2D,,2] [d2D,2] | \
M:3/4
 [GG,,]G [BG,]A [GG,]F | [G2E,,2] [GE,]A [B3/2C,,3/2]c/ | [d2D,,2] [d2D,2] [dG,]d | \
M:2/4
 [e3/2C,,3/2]d/ [cC,]B | [A3/2D,,3/2]G/ [AD,]B | [AA,,]G [AA,]B | [A2D,,2] [dD,]d | \
 [e3/2C,,3/2]d/ [cC,]B | [A3/2D,,3/2]G/ [AD,]B | [cA,,]B [A2D,,2] | [G2G,,2] [dG,]d | \
 [e3/2C,,3/2]d/ [cC,]B | [A3/2D,,3/2]G/ [AD,]B | [AA,,]G [AA,]B | [A2D,,2] [dD,]d | \
 [e3/2C,,3/2]d/ [cC,]B | [A3/2D,,3/2]G/ [AD,]B | \
M:3/4
 [cA,,]B [A2D,,2] [G2G,2] | \
W:Created with TablEdit http://www.tabledit.com/ by Bernard Loffet
